X:1
T:Ov Sirun Sirun (Oh Beautiful)
C:Trad Armenian (pre-1900)
S:Public domain — traditional Armenian folk song
M:3/4
L:1/4
Q:1/4=66
K:Am
H:A natural minor. Lyrical, vocal melody. Range A3-A4.
A, B, C | D3 | {E}D C B, | A,3 |
C D E | {F}E D C | B, C D | E3 |
E F G | A3 | {B}A G F | E3 |
{F}E D C | B, A, B, | {C}B, A, G, | A,3 |]
